X:1
T:Title
%%score ( 1 2 ) ( 3 4 )
L:1/8
M:4/4
K:Eb
V:1 treble nm="Grand Piano"
V:2 treble 
V:3 bass nm="Grand Piano"
V:4 bass 
V:1
 z4 z2[Q:1/4=106] z F | [EG]2 [EB]2 [EB]2 [EB]2 | [DB]6 GF | [CE]2 [CE]2 [CE]2 [CE]2 | %4
 [DF]6 [DF][EG] | [FA]2 [FA]2 [FA]2 [DF]2 | [EG]2 [GB]2 [Ge]2 [Ge]2 | [Fd]3 [Fd] [Ec]2 [Ec]2 | %8
[M:3/4] [DB]6 |[M:1/4] [AB]2 |[M:4/4] [Ge]2 [Ge]2 [Ge]2 [EG]2 | [DA]6 [DA]2 | %12
 [Ad]2 [Ad]2 [Ad]2 [DA]2 |[M:3/4] [EG]6 |[M:1/4] E2 |[M:4/4] [EG]2 [EG]2 [DA]2 [DA]2 | %16
 [_DB]2 [DB]2 [Cc]2 [_Ge]2 | [Ge]3 [EG] [EG]2 [DF]2 |[M:3/4] E6 |] %19
V:2
 z4 z2 E2 | x8 | z4 z2 D2 | x8 | x8 | x8 | x8 | x8 |[M:3/4] x6 |[M:1/4] x2 |[M:4/4] x8 | x8 | x8 | %13
[M:3/4] x6 |[M:1/4] x2 |[M:4/4] x8 | x8 | x8 |[M:3/4] x6 |] %19
V:3
 z4 z2 G,A, | [E,B,]2 [E,G,]2 [E,G,]2 [E,G,]2 | [F,A,]6 [B,,A,]2 | %3
 [C,G,]2 [C,G,]2 [C,G,]2 [C,G,]2 | [B,,B,]6 [B,,B,]2 | [B,,B,]2 [B,,B,]2 [B,,B,]2 [B,,B,]2 | %6
 [E,B,]2 [E,B,]2 [E,B,]2 [E,B,]2 | [F,B,]3 [F,B,] [F,=A,]2 [F,A,]2 |[M:3/4] [B,,B,]6 | %9
[M:1/4] [B,,B,]2 |[M:4/4] [E,B,]2 [B,,B,]2 [E,B,]2 [B,,B,]2 | [F,B,]2 [B,,B,]2 [F,B,]2 [B,,B,]2 | %12
 [F,B,]2 [B,,B,]2 [F,B,]2 [B,,B,]2 |[M:3/4] [E,B,]2 [B,,B,]2 [E,B,]2 |[M:1/4] [E,G,]2 | %15
[M:4/4] [E,B,]2 [E,B,]2 [F,B,]2 [F,B,]2 | [G,B,]2 [G,B,]2 A,2 [=A,C]2 | B,3 B, [B,,B,]2 [B,,A,]2 | %18
[M:3/4] [E,G,]6 |] %19
V:4
 z4 z2 E,2 | x8 | x8 | x8 | x8 | x8 | x8 | x8 |[M:3/4] x6 |[M:1/4] x2 |[M:4/4] x8 | x8 | x8 | %13
[M:3/4] x6 |[M:1/4] x2 |[M:4/4] x8 | x8 | x8 |[M:3/4] x6 |] %19

